X:1
T:I Was Glad
T:I Was Glad
T:Scott Werdebaugh
T:Scott Werdebaugh, 1999
T:© 1999 Scott Werdebaugh. Reproduce or publish freely for Christian worship or devotions. Courtesy of the Cyber Hymnal™
C:Scott Werdebaugh
Z:© 1999 Scott Werdebaugh. Reproduce or publish freely for Christian worship or devotions.
Z:Courtesy of the Cyber Hymnal™
%%score ( 1 2 ) ( 3 4 )
L:1/8
Q:1/4=155
M:3/4
K:C
V:1 treble 
V:2 treble 
V:3 bass 
V:4 bass 
V:1
"^Animated and lively""^A Capella"!mf! [CE]4 [DF]2 | [EG]2 [CE]2 [EG]2 | [FA]2 [EG]2 [DF]2 | %3
w: I was|glad when they|said un- to|
 [DG]6 | [EG]4 [DG]2 | [CG]3 [CE] [B,D][CE] | [DF]4 [DF][CE] | [B,D]6 | [CE]4 [DF]2 | %9
w: me,|“Let us|go in- to the|house of the|Lord.”|Let’s sing|
 [EG]2 [CE]2 [EG]2 | [FA]2 [EG]2 [DF]2 | [DG]4 [DG]2 | !>![FA]4 !>![GB]2 | %13
w: prais- es in|wor- ship to|You; For|You a-|
 !>![Gc]4 !>!!tenuto![EG]2 | !>!!tenuto![FA]2 !>!!tenuto![Ac]2 !>!!tenuto![FB]2 | %15
w: lone are|wor- thy of|
 !>!!tenuto![Ec]4!f! !breath![Gc]2 | [Bd]4 [Bd]2 | [Bd]2 [Gc]2 [GB]2 | [Gc]2 [Gc]2 [Ac]2 | %19
w: praise! We|lift Your|Name and a-|dore You, our|
 [Gc]4!ff! G2 | [Bd]4 [Bd]2 | [Bd]2 [Gc]2 [GB]2 | [Gc]2 [Gc]2 [Fc]2 | [Ec]6 |!f! [CE]4 [DF]2 | %25
w: King; To|You all|glo- ry and|hon- or we|bring!|Hear our|
 [EG]2 [CE]2 [EG]2 | [FA]2 [EG]2 [DF]2 | [DG]4!ff! [DG]2 | !>![CA]4 !>![FB]2 | !>![Ec]4 !>![EG]2 | %30
w: prais- es and|wor- ship, we|pray, And|be en-|throned be-|
 !>![FA]2"^allarg." !>![Ac]4 |[Q:1/4=120] !>![FAc]4 !>![DFB]2 |!fff! !>!!fermata![CEGc]6 |] %33
w: fore us,|Lord, to-|day!|
V:2
 x6 | x6 | x6 | x6 | x6 | x6 | x6 | x6 | x6 | x6 | x6 | x6 | x6 | x6 | x6 | x6 | x6 | x6 | x6 | %19
 x4 G2 | x6 | x6 | x6 | x6 | x6 | x6 | x6 | x6 | x6 | x6 | x6 | x6 | x6 |] %33
V:3
 [C,G,]4 [G,B,]2 | [G,C]2 [E,G,]2 [G,C]2 | [F,D]2 [E,B,]2 [F,A,]2 | [G,B,]6 | [E,C]4 [F,B,]2 | %5
 [E,A,]3 [C,G,] [B,,G,][C,G,] | [F,A,]4 [F,A,][E,G,] | [G,,G,]6 | [C,G,]4 [G,B,]2 | %9
 [G,C]2 [E,G,]2 [G,C]2 | [F,D]2 [E,B,]2 [F,A,]2 | [G,B,]4 [G,B,]2 | !>![F,C]4 !>![D,B,]2 | %13
 !>![E,G,]4 !>![C,G,]2 | !>![F,C]2 !>![F,A,]2 !>![D,G,]2 | !>![C,G,]4 [E,C]2 | [G,B,]4 [G,B,]2 | %17
 [F,G,]2 [E,G,]2 [D,G,]2 | [C,E,]2 [E,G,]2 [F,A,]2 | [E,G,]4 G,2 | [G,B,]4 [G,B,]2 | %21
 [F,G,]2 [E,G,]2 [D,F,]2 | [C,E,]2 [E,G,]2 [F,A,]2 | [C,G,]6 | [C,G,]4 [B,,G,]2 | %25
 [C,E,]2 [E,G,]2 [C,E,]2 | [C,F,]2 [C,G,]2 [F,A,]2 | [G,B,]4 [B,,G,]2 | !>![F,A,]4 !>![D,G,]2 | %29
 !>![C,G,]4 !>![C,E,]2 | !>![C,F,]2 !>![A,,F,]4 | !>![C,F,A,]4 !>![G,,D,G,]2 | %32
 !>!!fermata![C,,C,E,G,]6 |] %33
V:4
 x6 | x6 | x6 | x6 | x6 | x6 | x6 | x6 | x6 | x6 | x6 | x6 | x6 | x6 | x6 | x6 | x6 | x6 | x6 | %19
 x4 G,2 | x6 | x6 | x6 | x6 | x6 | x6 | x6 | x6 | x6 | x6 | x6 | x6 | x6 |] %33

